public/assets/footer/linkedin-dark.svg

<svg fill="none" height="36" viewBox="0 0 37 36" width="37" xmlns="http://www.w3.org/2000/svg"><path d="m11.9568 13.7604h-5.14282c-.17049 0-.334.0678-.45456.1883-.12056.1206-.18829.2841-.18829.4546v15.4286c0 .1705.06773.334.18829.4545.12056.1206.28407.1883.45456.1883h5.14282c.1705 0 .334-.0677.4546-.1883.1206-.1205.1883-.284.1883-.4545v-15.4286c0-.1705-.0677-.334-.1883-.4546-.1206-.1205-.2841-.1883-.4546-.1883zm-.6428 15.4286h-3.85716v-14.1428h3.85716zm14.1428-15.4286c-1.395 0-2.7514.4603-3.8571 1.3102v-.6673c0-.1705-.0677-.334-.1883-.4546-.1206-.1205-.2841-.1883-.4546-.1883h-5.1428c-.1705 0-.334.0678-.4546.1883-.1206.1206-.1883.2841-.1883.4546v15.4286c0 .1705.0677.334.1883.4545.1206.1206.2841.1883.4546.1883h5.1428c.1705 0 .334-.0677.4546-.1883.1206-.1205.1883-.284.1883-.4545v-7.0715c0-.5114.2032-1.002.5649-1.3637.3616-.3616.8522-.5648 1.3637-.5648.5114 0 1.002.2032 1.3637.5648.3616.3617.5648.8523.5648 1.3637v7.0715c0 .1705.0678.334.1883.4545.1206.1206.2841.1883.4546.1883h5.1428c.1705 0 .334-.0677.4546-.1883.1206-.1205.1883-.284.1883-.4545v-9.6429c-.002-1.7043-.68-3.3383-1.8851-4.5434-1.2052-1.2052-2.8391-1.8831-4.5435-1.8852zm5.1429 15.4286h-3.8572v-6.4286c0-.8524-.3386-1.67-.9414-2.2728s-1.4204-.9414-2.2728-.9414c-.8525 0-1.6701.3386-2.2729.9414s-.9414 1.4204-.9414 2.2728v6.4286h-3.8572v-14.1428h3.8572v1.5467c-.0001.1331.0413.263.1182.3717.077.1086.1857.1907.3114.2349.1256.0441.2618.0482.3898.0117.128-.0366.2415-.112.3249-.2159.6602-.8369 1.5652-1.4469 2.5886-1.7449 1.0235-.2981 2.1145-.2693 3.1208.0823 1.0064.3516 1.8779 1.0084 2.4931 1.879.6152.8705.9434 1.9113.9389 2.9773zm-20.74115-24.42598c-.15107-.01065-.30267-.01151-.45385-.00257-.48116-.03274-.96391.03366-1.41836.19509s-.87091.41445-1.22359.74338c-.35268.32894-.63407.72679-.82673 1.1689s-.2925.91907-.29332 1.40134c-.00399.47723.0901.95019.27643 1.38956.18634.43938.46095.83578.8068 1.16458.34585.3289.75558.5832 1.20377.7472s.92529.2341 1.40171.2061h.036c.46052.0322.92289-.0265 1.36069-.173.4378-.1464.8425-.3776 1.1909-.6805.3484-.3028.6338-.6713.8399-1.08443.206-.41312.3286-.86278.3609-1.32329.0322-.46052-.0266-.92288-.173-1.36069-.1464-.4378-.3777-.84247-.6805-1.19091s-.6713-.63382-1.0845-.83985c-.4131-.20602-.8627-.32866-1.32325-.36091zm-.045 5.73168c-.14847.0135-.29792.0122-.44614-.0038h-.036c-.30943.0232-.62032-.0183-.91281-.1219-.29248-.1037-.56015-.2672-.78589-.48006-.22575-.21291-.40463-.47055-.52521-.75647s-.18021-.59385-.1751-.90411c.00512-.31027.07487-.61606.20481-.89785s.31721-.53339.54986-.73874c.23264-.20534.50555-.35992.8013-.45387.29574-.09394.60783-.12519.91633-.09174.58991-.05422 1.1772.12813 1.6327.50693.4555.37879.7418.92301.796 1.51293s-.1281 1.17721-.5069 1.63268c-.3788.4555-.923.7418-1.51295.796z" fill="#fff"/></svg>

<svg xmlns="http://www.w3.org/2000/svg" width="37" height="36" fill="none" viewBox="0 0 37 36"><path fill="#fff" d="M11.9568 13.7604H6.81398C6.64349 13.7604 6.47998 13.8282 6.35942 13.9487C6.23886 14.0693 6.17113 14.2328 6.17113 14.4033V29.8319C6.17113 30.0024 6.23886 30.1659 6.35942 30.2864C6.47998 30.407 6.64349 30.4747 6.81398 30.4747H11.9568C12.1273 30.4747 12.2908 30.407 12.4114 30.2864C12.532 30.1659 12.5997 30.0024 12.5997 29.8319V14.4033C12.5997 14.2328 12.532 14.0693 12.4114 13.9487C12.2908 13.8282 12.1273 13.7604 11.9568 13.7604ZM11.314 29.189H7.45684V15.0462H11.314V29.189ZM25.4568 13.7604C24.0618 13.7604 22.7054 14.2207 21.5997 15.0706V14.4033C21.5997 14.2328 21.532 14.0693 21.4114 13.9487C21.2908 13.8282 21.1273 13.7604 20.9568 13.7604H15.814C15.6435 13.7604 15.48 13.8282 15.3594 13.9487C15.2388 14.0693 15.1711 14.2328 15.1711 14.4033V29.8319C15.1711 30.0024 15.2388 30.1659 15.3594 30.2864C15.48 30.407 15.6435 30.4747 15.814 30.4747H20.9568C21.1273 30.4747 21.2908 30.407 21.4114 30.2864C21.532 30.1659 21.5997 30.0024 21.5997 29.8319V22.7604C21.5997 22.249 21.8029 21.7584 22.1646 21.3967C22.5262 21.0351 23.0168 20.8319 23.5283 20.8319C24.0397 20.8319 24.5303 21.0351 24.892 21.3967C25.2536 21.7584 25.4568 22.249 25.4568 22.7604V29.8319C25.4568 30.0024 25.5246 30.1659 25.6451 30.2864C25.7657 30.407 25.9292 30.4747 26.0997 30.4747H31.2425C31.413 30.4747 31.5765 30.407 31.6971 30.2864C31.8177 30.1659 31.8854 30.0024 31.8854 29.8319V20.189C31.8834 18.4847 31.2054 16.8507 30.0003 15.6456C28.7951 14.4404 27.1612 13.7625 25.4568 13.7604ZM30.5997 29.189H26.7425V22.7604C26.7425 21.908 26.4039 21.0904 25.8011 20.4876C25.1983 19.8848 24.3807 19.5462 23.5283 19.5462C22.6758 19.5462 21.8582 19.8848 21.2554 20.4876C20.6526 21.0904 20.314 21.908 20.314 22.7604V29.189H16.4568V15.0462H20.314V16.5929C20.3139 16.726 20.3553 16.8559 20.4322 16.9646C20.5092 17.0732 20.6179 17.1553 20.7436 17.1995C20.8692 17.2436 21.0054 17.2477 21.1334 17.2112C21.2614 17.1746 21.3749 17.0992 21.4583 16.9953C22.1185 16.1584 23.0235 15.5484 24.0469 15.2504C25.0704 14.9523 26.1614 14.9811 27.1677 15.3327C28.1741 15.6843 29.0456 16.3411 29.6608 17.2117C30.276 18.0822 30.6042 19.123 30.5997 20.189V29.189ZM9.85855 4.76302C9.70748 4.75237 9.55588 4.75151 9.4047 4.76045C8.92354 4.72771 8.44079 4.79411 7.98634 4.95554C7.53189 5.11697 7.11543 5.36999 6.76275 5.69892C6.41007 6.02786 6.12868 6.42571 5.93602 6.86782C5.74336 7.30993 5.64352 7.78689 5.6427 8.26916C5.63871 8.74639 5.7328 9.21935 5.91913 9.65872C6.10547 10.0981 6.38008 10.4945 6.72593 10.8233C7.07178 11.1522 7.48151 11.4065 7.9297 11.5705C8.37789 11.7345 8.85499 11.8046 9.33141 11.7766H9.36741C9.82793 11.8088 10.2903 11.7501 10.7281 11.6036C11.1659 11.4572 11.5706 11.226 11.919 10.9231C12.2674 10.6203 12.5528 10.2518 12.7589 9.83867C12.9649 9.42555 13.0875 8.97589 13.1198 8.51538C13.152 8.05486 13.0932 7.5925 12.9468 7.15469C12.8004 6.71689 12.5691 6.31222 12.2663 5.96378C11.9635 5.61534 11.595 5.32996 11.1818 5.12393C10.7687 4.91791 10.3191 4.79527 9.85855 4.76302ZM9.81355 10.4947C9.66508 10.5082 9.51563 10.5069 9.36741 10.4909H9.33141C9.02198 10.5141 8.71109 10.4726 8.4186 10.369C8.12612 10.2653 7.85845 10.1018 7.63271 9.88894C7.40696 9.67603 7.22808 9.41839 7.1075 9.13247C6.98692 8.84655 6.92729 8.53862 6.9324 8.22836C6.93752 7.91809 7.00727 7.6123 7.13721 7.33051C7.26715 7.04872 7.45442 6.79712 7.68707 6.59177C7.91971 6.38643 8.19262 6.23185 8.48837 6.1379C8.78411 6.04396 9.0962 6.01271 9.4047 6.04616C9.99461 5.99194 10.5819 6.17429 11.0374 6.55309C11.4929 6.93188 11.7792 7.4761 11.8334 8.06602C11.8876 8.65594 11.7053 9.24323 11.3265 9.6987C10.9477 10.1542 10.4035 10.4405 9.81355 10.4947Z"/></svg>
